X:47
T:In the dead of the Night
O:No 47 Wm Clarke MS  Feltwell, Norfolk
N:Bar 4 quaver changed to crochet.
N:Bar 9 a beat has been added
N:Bar 17 a note has been omitted
N:Bar lines have been redistributed
I:abc2nwc
M:2/4
L:1/16
K:G
D3D"_|"|G4B3G"_|"|d4B3G"_|"|(A3B) (cA) GF|{F}G4c4|"^*"B4"_|"(A3G)|
F3G (A2d2)|^cB (AG)"_|"(F3G)|(A3G) (FE) D2|
D4"^*"DD3"_|"|d4B2G2|D4D3D"_|"|c4A2F2|
D4z2(EF)"_|"|(G2E2)F2G2|(A3B) G2(AB)"_|"|(c2A2) B4|"^*"Bg3 e2c2"_|"|Bd3 D2F2|G6"_||"|]

